poi/svg/1805.svg

<?xml version="1.0" encoding="UTF-8" standalone="no"?>
<svg
   xmlns:dc="http://purl.org/dc/elements/1.1/"
   xmlns:cc="http://creativecommons.org/ns#"
   xmlns:rdf="http://www.w3.org/1999/02/22-rdf-syntax-ns#"
   xmlns:svg="http://www.w3.org/2000/svg"
   xmlns="http://www.w3.org/2000/svg"
   xmlns:sodipodi="http://sodipodi.sourceforge.net/DTD/sodipodi-0.dtd"
   xmlns:inkscape="http://www.inkscape.org/namespaces/inkscape"
   inkscape:version="1.0 (4035a4fb49, 2020-05-01)"
   sodipodi:docname="1805.svg"
   id="svg20"
   version="1.2"
   viewBox="0 0 42.519639 42.519639"
   height="14.999999mm"
   width="14.999999mm">
  <metadata
     id="metadata24">
    <rdf:RDF>
      <cc:Work
         rdf:about="">
        <dc:format>image/svg+xml</dc:format>
        <dc:type
           rdf:resource="http://purl.org/dc/dcmitype/StillImage" />
        <dc:title>Qt SVG Document</dc:title>
      </cc:Work>
    </rdf:RDF>
  </metadata>
  <sodipodi:namedview
     inkscape:current-layer="svg20"
     inkscape:window-maximized="0"
     inkscape:window-y="0"
     inkscape:window-x="0"
     inkscape:cy="28.346482"
     inkscape:cx="28.346482"
     inkscape:zoom="5.8410537"
     showgrid="false"
     id="namedview22"
     inkscape:window-height="480"
     inkscape:window-width="1034"
     inkscape:pageshadow="2"
     inkscape:pageopacity="0"
     guidetolerance="10"
     gridtolerance="10"
     objecttolerance="10"
     borderopacity="1"
     bordercolor="#666666"
     pagecolor="#ffffff" />
  <title
     id="title2">Qt SVG Document</title>
  <desc
     id="desc4">Generated with Qt</desc>
  <defs
     id="defs6" />
  <g
     transform="translate(5.25984,5.25984)"
     id="g18"
     stroke-linejoin="bevel"
     stroke-linecap="square"
     fill-rule="evenodd"
     stroke-width="1"
     stroke="#000000"
     fill="none">
    <g
       id="g10"
       font-style="normal"
       font-weight="400"
       font-size="7.8px"
       font-family="'MS Shell Dlg 2'"
       stroke="none"
       fill-opacity="1"
       fill="#a61215">
      <path
         id="path8"
         d="M 37.2598,16 C 37.2598,27.7415 27.7415,37.2598 16,37.2598 4.25851,37.2598 -5.25984,27.7415 -5.25984,16 -5.25984,4.25851 4.25851,-5.25984 16,-5.25984 27.7415,-5.25984 37.2598,4.25851 37.2598,16"
         fill-rule="evenodd"
         vector-effect="non-scaling-stroke" />
    </g>
    <g
       id="g14"
       font-style="normal"
       font-weight="400"
       font-size="7.8px"
       font-family="'MS Shell Dlg 2'"
       transform="translate(17.1339,11.4646)"
       stroke="none"
       fill-opacity="0.94902"
       fill="#ffffff">
      <path
         id="path12"
         d="M 10.6782,8.49805 H -5.67773 L -4.90088,4.31982 H 8.51563 L 10.6782,8.49805 M -7.12646,1.56934 H -9.49902 V -0.110352 L -8.5542,-4.83447 v -2.20459 h -0.69287 v -0.41992 h 0.69287 v -1.02881 h 0.44092 v 1.02881 h 0.71387 v 0.41992 h -0.71387 v 2.20459 l 0.98682,4.724118 V 1.56934 m 0.86083,0 H -6.9585 V 0.79248 l 0.33594,-2.7085 0.35693,2.7085 v 0.77686 m -3.48535,0 H -10.4438 V 0.79248 l 0.3359,-2.7085 0.35692,2.7085 v 0.77686 m -0.86082,0.86084 h 4.51414 V 6.20947 H -10.6118 V 2.43018 m 1.72166,3.00244 h 1.23877 v -2.1416 h -1.23877 v 2.1416 m -1.72166,1.38574 h 4.51414 v 9.72124 h -1.11279 v -2.7925 c 0,-0.35 -0.10148,-0.6404 -0.30444,-0.8714 -0.20296,-0.2309 -0.43042,-0.3464 -0.68238,-0.3464 -0.32194,0 -0.59139,0.1155 -0.80835,0.3464 -0.21695,0.231 -0.32543,0.5214 -0.32543,0.8714 v 2.7925 H -10.6118 V 6.81836 m 2.30955,1.32275 c -0.39192,0 -0.73136,0.14348 -1.01831,0.43042 -0.28694,0.28695 -0.43042,0.63339 -0.43042,1.03931 0,0.40596 0.14348,0.73486 0.43042,0.98686 0.28695,0.2519 0.62639,0.3779 1.01831,0.3779 0.37793,0 0.69637,-0.126 0.95533,-0.3779 0.25895,-0.252 0.38842,-0.5809 0.38842,-0.98686 0,-0.40592 -0.12947,-0.75236 -0.38842,-1.03931 -0.25896,-0.28694 -0.5774,-0.43042 -0.95533,-0.43042 m 2.62452,1.46973 H 10.6782 V 16.5396 H 9.29248 v -3.9263 c 0,-0.4199 -0.12948,-0.7979 -0.38843,-1.1338 -0.25895,-0.3359 -0.58439,-0.5039 -0.97632,-0.5039 -0.40592,0 -0.73136,0.168 -0.97631,0.5039 -0.24496,0.3359 -0.36744,0.7139 -0.36744,1.1338 v 3.9263 h -1.0288 v -3.9263 c 0,-0.4199 -0.14348,-0.7979 -0.43042,-1.1338 -0.28695,-0.3359 -0.63339,-0.5039 -1.03931,-0.5039 -0.33594,0 -0.64738,0.168 -0.93433,0.5039 -0.28694,0.3359 -0.43042,0.7139 -0.43042,1.1338 v 3.9263 H 1.69189 v -3.9263 c 0,-0.4199 -0.12947,-0.7979 -0.38842,-1.1338 -0.25896,-0.3359 -0.591393,-0.5039 -0.997318,-0.5039 -0.3779293,0 -0.692871,0.168 -0.944824,0.5039 -0.251953,0.3359 -0.377928,0.7139 -0.377928,1.1338 v 3.9263 h -1.04981 v -3.9263 c 0,-0.4199 -0.12597,-0.7979 -0.37793,-1.1338 -0.25195,-0.3359 -0.58089,-0.5039 -0.98681,-0.5039 -0.40593,0 -0.73836,0.168 -0.99732,0.5039 -0.25895,0.3359 -0.38842,0.7139 -0.38842,1.1338 v 3.9263 H -5.67773 V 9.61084 M -8.51221,9.8208 c 0,0 -0.01399,-0.014 -0.04199,-0.04199 -0.08398,0.05599 -0.18197,0.11898 -0.29394,0.18896 -0.11198,0.07003 -0.27295,0.18193 -0.48291,0.33593 -0.11198,-0.112 -0.16797,-0.2309 -0.16797,-0.35692 0,-0.05599 -0.014,-0.11198 -0.042,-0.16797 C -9.56901,9.72282 -9.58301,9.66683 -9.58301,9.61084 h 0.94483 V 9.52686 C -8.72217,9.47087 -8.82715,9.42188 -8.95313,9.37988 -9.0791,9.33789 -9.26107,9.2679 -9.49902,9.16992 c 0,-0.05599 0.05599,-0.13997 0.16797,-0.25195 C -9.24707,8.75 -9.15609,8.66602 -9.05811,8.66602 l 0.5459,0.69287 c 0.028,0 0.042,-0.007 0.042,-0.021 0,-0.014 0.01399,-0.021 0.04199,-0.021 -0.028,-0.09798 -0.05599,-0.21696 -0.08399,-0.35693 -0.02799,-0.13997 -0.06998,-0.32194 -0.12597,-0.5459 0.05599,-0.05599 0.16797,-0.08398 0.33593,-0.08398 0.06999,0 0.13298,0 0.18897,0 0.05599,0 0.11198,0.02799 0.16797,0.08398 l -0.25196,0.90283 c 0,0 0.028,0.014 0.08399,0.042 0.05599,-0.05599 0.11898,-0.15048 0.18896,-0.28345 0.06999,-0.13298 0.16097,-0.29745 0.27295,-0.49341 0.05599,0.05599 0.09798,0.09098 0.12598,0.10498 0.02799,0.014 0.06999,0.06299 0.12598,0.14697 0.12597,0.11198 0.18896,0.19597 0.18896,0.25196 l -0.86084,0.44092 c 0,0 0.014,0.02799 0.04199,0.08398 0.08399,0 0.19597,-0.007 0.33594,-0.021 0.13997,-0.01399 0.32894,-0.03499 0.5669,-0.06298 0.05598,0.05599 0.06998,0.10498 0.04199,0.14697 -0.028,0.04199 -0.04199,0.10498 -0.04199,0.18896 0,0.05599 -0.014,0.10498 -0.042,0.14701 -0.02799,0.042 -0.04199,0.1119 -0.04199,0.2099 L -8.07129,9.73682 c 0,0.02799 -0.007,0.04199 -0.021,0.04199 -0.01399,0 -0.02099,0.014 -0.02099,0.04199 0.05599,0.05599 0.13997,0.13648 0.25195,0.2415 0.11198,0.1049 0.23796,0.2414 0.37793,0.4094 -0.11198,0.112 -0.18196,0.1959 -0.20996,0.2519 -0.08398,0 -0.14697,0.014 -0.18896,0.042 -0.042,0.028 -0.09099,0.042 -0.14698,0.042 L -8.23926,9.86279 h -0.06299 -0.04199 c -0.05599,0.18201 -0.09798,0.49691 -0.12597,0.94481 -0.11198,0 -0.22396,-0.028 -0.33594,-0.084 -0.05599,0 -0.13998,-0.056 -0.25196,-0.1679 l 0.5459,-0.7349"
         fill-rule="evenodd"
         vector-effect="none" />
    </g>
    <g
       id="g16"
       font-style="normal"
       font-weight="400"
       font-size="7.8px"
       font-family="'MS Shell Dlg 2'"
       stroke="none"
       fill-opacity="1"
       fill="#a61215" />
  </g>
</svg>

<?xml version="1.0" encoding="UTF-8" standalone="no"?>
<svg width="11.2889mm" height="11.2889mm"
 viewBox="0 0 32 32"
 xmlns="http://www.w3.org/2000/svg" xmlns:xlink="http://www.w3.org/1999/xlink"  version="1.2" baseProfile="tiny">
<title>Qt SVG Document</title>
<desc>Generated with Qt</desc>
<defs>
</defs>
<g fill="none" stroke="black" stroke-width="1" fill-rule="evenodd" stroke-linecap="square" stroke-linejoin="bevel" >

<g fill="#a61215" fill-opacity="1" stroke="none" transform="matrix(1,0,0,1,0,0)"
font-family="MS Shell Dlg 2" font-size="7.8" font-weight="400" font-style="normal" 
>
<path vector-effect="non-scaling-stroke" fill-rule="evenodd" d="M37.2598,16 C37.2598,27.7415 27.7415,37.2598 16,37.2598 C4.25851,37.2598 -5.25984,27.7415 -5.25984,16 C-5.25984,4.25851 4.25851,-5.25984 16,-5.25984 C27.7415,-5.25984 37.2598,4.25851 37.2598,16 "/>
</g>

<g fill="#ffffff" fill-opacity="0.94902" stroke="none" transform="matrix(1,0,0,1,17.1339,11.4646)"
font-family="MS Shell Dlg 2" font-size="7.8" font-weight="400" font-style="normal" 
>
<path vector-effect="none" fill-rule="evenodd" d="M10.6782,8.49805 L-5.67773,8.49805 L-4.90088,4.31982 L8.51563,4.31982 L10.6782,8.49805 M-7.12646,1.56934 L-9.49902,1.56934 L-9.49902,-0.110352 L-8.5542,-4.83447 L-8.5542,-7.03906 L-9.24707,-7.03906 L-9.24707,-7.45898 L-8.5542,-7.45898 L-8.5542,-8.48779 L-8.11328,-8.48779 L-8.11328,-7.45898 L-7.39941,-7.45898 L-7.39941,-7.03906 L-8.11328,-7.03906 L-8.11328,-4.83447 L-7.12646,-0.110352 L-7.12646,1.56934 M-6.26563,1.56934 L-6.9585,1.56934 L-6.9585,0.79248 L-6.62256,-1.91602 L-6.26563,0.79248 L-6.26563,1.56934 M-9.75098,1.56934 L-10.4438,1.56934 L-10.4438,0.79248 L-10.1079,-1.91602 L-9.75098,0.79248 L-9.75098,1.56934 M-10.6118,2.43018 L-6.09766,2.43018 L-6.09766,6.20947 L-10.6118,6.20947 L-10.6118,2.43018 M-8.89014,5.43262 L-7.65137,5.43262 L-7.65137,3.29102 L-8.89014,3.29102 L-8.89014,5.43262 M-10.6118,6.81836 L-6.09766,6.81836 L-6.09766,16.5396 L-7.21045,16.5396 L-7.21045,13.7471 C-7.21045,13.3971 -7.31193,13.1067 -7.51489,12.8757 C-7.71785,12.6448 -7.94531,12.5293 -8.19727,12.5293 C-8.51921,12.5293 -8.78866,12.6448 -9.00562,12.8757 C-9.22257,13.1067 -9.33105,13.3971 -9.33105,13.7471 L-9.33105,16.5396 L-10.6118,16.5396 L-10.6118,6.81836 M-8.30225,8.14111 C-8.69417,8.14111 -9.03361,8.28459 -9.32056,8.57153 C-9.6075,8.85848 -9.75098,9.20492 -9.75098,9.61084 C-9.75098,10.0168 -9.6075,10.3457 -9.32056,10.5977 C-9.03361,10.8496 -8.69417,10.9756 -8.30225,10.9756 C-7.92432,10.9756 -7.60588,10.8496 -7.34692,10.5977 C-7.08797,10.3457 -6.9585,10.0168 -6.9585,9.61084 C-6.9585,9.20492 -7.08797,8.85848 -7.34692,8.57153 C-7.60588,8.28459 -7.92432,8.14111 -8.30225,8.14111 M-5.67773,9.61084 L10.6782,9.61084 L10.6782,16.5396 L9.29248,16.5396 L9.29248,12.6133 C9.29248,12.1934 9.163,11.8154 8.90405,11.4795 C8.6451,11.1436 8.31966,10.9756 7.92773,10.9756 C7.52181,10.9756 7.19637,11.1436 6.95142,11.4795 C6.70646,11.8154 6.58398,12.1934 6.58398,12.6133 L6.58398,16.5396 L5.55518,16.5396 L5.55518,12.6133 C5.55518,12.1934 5.4117,11.8154 5.12476,11.4795 C4.83781,11.1436 4.49137,10.9756 4.08545,10.9756 C3.74951,10.9756 3.43807,11.1436 3.15112,11.4795 C2.86418,11.8154 2.7207,12.1934 2.7207,12.6133 L2.7207,16.5396 L1.69189,16.5396 L1.69189,12.6133 C1.69189,12.1934 1.56242,11.8154 1.30347,11.4795 C1.04451,11.1436 0.712077,10.9756 0.306152,10.9756 C-0.0717773,10.9756 -0.386719,11.1436 -0.638672,11.4795 C-0.890625,11.8154 -1.0166,12.1934 -1.0166,12.6133 L-1.0166,16.5396 L-2.06641,16.5396 L-2.06641,12.6133 C-2.06641,12.1934 -2.19238,11.8154 -2.44434,11.4795 C-2.69629,11.1436 -3.02523,10.9756 -3.43115,10.9756 C-3.83708,10.9756 -4.16951,11.1436 -4.42847,11.4795 C-4.68742,11.8154 -4.81689,12.1934 -4.81689,12.6133 L-4.81689,16.5396 L-5.67773,16.5396 L-5.67773,9.61084 M-8.51221,9.8208 C-8.51221,9.8208 -8.5262,9.8068 -8.5542,9.77881 C-8.63818,9.8348 -8.73617,9.89779 -8.84814,9.96777 C-8.96012,10.0378 -9.12109,10.1497 -9.33105,10.3037 C-9.44303,10.1917 -9.49902,10.0728 -9.49902,9.94678 C-9.49902,9.89079 -9.51302,9.8348 -9.54102,9.77881 C-9.56901,9.72282 -9.58301,9.66683 -9.58301,9.61084 L-8.63818,9.61084 L-8.63818,9.52686 C-8.72217,9.47087 -8.82715,9.42188 -8.95313,9.37988 C-9.0791,9.33789 -9.26107,9.2679 -9.49902,9.16992 C-9.49902,9.11393 -9.44303,9.02995 -9.33105,8.91797 C-9.24707,8.75 -9.15609,8.66602 -9.05811,8.66602 L-8.51221,9.35889 C-8.48421,9.35889 -8.47021,9.35189 -8.47021,9.33789 C-8.47021,9.32389 -8.45622,9.31689 -8.42822,9.31689 C-8.45622,9.21891 -8.48421,9.09993 -8.51221,8.95996 C-8.5402,8.81999 -8.58219,8.63802 -8.63818,8.41406 C-8.58219,8.35807 -8.47021,8.33008 -8.30225,8.33008 C-8.23226,8.33008 -8.16927,8.33008 -8.11328,8.33008 C-8.05729,8.33008 -8.0013,8.35807 -7.94531,8.41406 L-8.19727,9.31689 C-8.19727,9.31689 -8.16927,9.33089 -8.11328,9.35889 C-8.05729,9.3029 -7.9943,9.20841 -7.92432,9.07544 C-7.85433,8.94246 -7.76335,8.77799 -7.65137,8.58203 C-7.59538,8.63802 -7.55339,8.67301 -7.52539,8.68701 C-7.4974,8.70101 -7.4554,8.75 -7.39941,8.83398 C-7.27344,8.94596 -7.21045,9.02995 -7.21045,9.08594 L-8.07129,9.52686 C-8.07129,9.52686 -8.05729,9.55485 -8.0293,9.61084 C-7.94531,9.61084 -7.83333,9.60384 -7.69336,9.58984 C-7.55339,9.57585 -7.36442,9.55485 -7.12646,9.52686 C-7.07048,9.58285 -7.05648,9.63184 -7.08447,9.67383 C-7.11247,9.71582 -7.12646,9.77881 -7.12646,9.86279 C-7.12646,9.91878 -7.14046,9.96777 -7.16846,10.0098 C-7.19645,10.0518 -7.21045,10.1217 -7.21045,10.2197 L-8.07129,9.73682 C-8.07129,9.76481 -8.07829,9.77881 -8.09229,9.77881 C-8.10628,9.77881 -8.11328,9.79281 -8.11328,9.8208 C-8.05729,9.87679 -7.97331,9.95728 -7.86133,10.0623 C-7.74935,10.1672 -7.62337,10.3037 -7.4834,10.4717 C-7.59538,10.5837 -7.66536,10.6676 -7.69336,10.7236 C-7.77734,10.7236 -7.84033,10.7376 -7.88232,10.7656 C-7.92432,10.7936 -7.97331,10.8076 -8.0293,10.8076 L-8.23926,9.86279 L-8.30225,9.86279 L-8.34424,9.86279 C-8.40023,10.0448 -8.44222,10.3597 -8.47021,10.8076 C-8.58219,10.8076 -8.69417,10.7796 -8.80615,10.7236 C-8.86214,10.7236 -8.94613,10.6676 -9.05811,10.5557 L-8.51221,9.8208"/>
</g>

<g fill="#a61215" fill-opacity="1" stroke="none" transform="matrix(1,0,0,1,0,0)"
font-family="MS Shell Dlg 2" font-size="7.8" font-weight="400" font-style="normal" 
>
</g>
</g>
</svg>
